packages/foundations/assets/icons/functional/images/transportation/boat_28_inverted.svg

<svg width="28" height="28" viewBox="0 0 28 28" fill="none" xmlns="http://www.w3.org/2000/svg">
<g clip-path="url(#clip0_2214_6670)">
<path fill-rule="evenodd" clip-rule="evenodd" d="M23.3089 18.3354C23.5663 18.667 23.8536 18.9935 24.0344 19.1593C24.4593 19.549 25.0031 19.791 25.374 19.8348C25.814 19.8867 26.1177 20.1716 26.1177 20.5824C26.1177 20.9932 25.7848 21.3261 25.374 21.3261C24.4809 21.3261 23.5937 20.8655 22.7122 19.9443C21.6936 20.8655 20.685 21.3261 19.6865 21.3261C18.688 21.3261 17.7193 20.9344 16.7806 20.1508C15.8259 20.9344 14.8987 21.3261 13.999 21.3261C13.0993 21.3261 12.1543 20.9268 11.164 20.128C10.144 20.9268 9.19319 21.3261 8.3115 21.3261C7.42981 21.3261 6.45127 20.9271 5.37587 20.1289C4.42769 20.9271 3.5104 21.3261 2.624 21.3261C2.21324 21.3261 1.88025 20.9932 1.88025 20.5824C1.88025 20.2032 2.18705 19.8386 2.624 19.8386C3.25449 19.6963 3.74013 19.5022 4.08091 19.2563C4.40733 19.0208 4.65693 18.7848 4.78549 18.6409C5.06351 18.3297 5.54051 18.3117 5.84791 18.593C6.1553 18.8744 6.47049 19.0908 6.69267 19.233C7.19415 19.5539 7.80854 19.8332 8.3115 19.8348C8.81446 19.8363 9.30909 19.6121 9.8572 19.2427C10.0655 19.1023 10.3226 18.9136 10.6399 18.6126C10.9572 18.3116 11.3881 18.3139 11.7004 18.6173C12.0127 18.9206 12.2642 19.105 12.4694 19.2449C13.0199 19.6203 13.5547 19.8386 13.999 19.8386C14.4415 19.8386 14.9682 19.6216 15.5076 19.248C15.7088 19.1087 15.9548 18.9427 16.2587 18.6235C16.5626 18.3044 17.0759 18.318 17.3624 18.6529C17.4795 18.7898 17.7197 19.0194 18.0492 19.2504C18.5792 19.6218 19.1365 19.8386 19.6865 19.8386C20.2146 19.8386 20.8007 19.5753 21.3829 19.121C21.599 18.9524 21.8849 18.7255 22.1773 18.3644C22.4697 18.0033 23.0515 18.0038 23.3089 18.3354ZM17.8546 8.4194C18.2353 8.83775 18.5403 9.2542 18.7661 9.6124L25.2455 8.47484C25.8493 8.36887 26.3011 8.9916 26.048 9.5227L23.8516 13.0457C22.5909 15.066 21.742 16.4116 21.3049 17.0824C20.6493 18.0886 19.6865 17.9574 19.6865 17.9574C18.8255 17.9563 17.8776 17.373 16.8427 16.2074C15.7991 17.3741 14.8512 17.9574 13.999 17.9574C13.1468 17.9574 12.1989 17.3741 11.1552 16.2074C10.1187 17.3741 9.17075 17.9574 8.3115 17.9574C7.45225 17.9574 6.50433 17.3741 5.46775 16.2074C4.43494 17.3741 3.48702 17.9574 2.624 17.9574C2.24483 17.9574 1.88025 17.646 1.88025 17.2133L1.88469 14.5052C1.88025 13.354 2.71708 12.4519 3.7473 12.2465L7.43438 11.5998C8.07022 10.7037 8.28933 9.57204 8.02654 8.49745C7.93097 8.10665 8.15845 7.6794 8.62831 7.58688L13.8785 6.72347C15.3821 6.47654 16.7161 7.16835 17.8546 8.4194ZM7.5807 13.2863C7.22545 13.3882 6.99343 13.7412 7.05196 14.1158C7.1105 14.4904 7.43913 14.7558 7.80854 14.7445L21.9929 12.5282C22.3481 12.4262 22.5802 12.0733 22.5216 11.6987C22.4631 11.324 22.1345 11.0587 21.765 11.07L7.5807 13.2863ZM14.28 8.17124L9.60037 8.9333C9.68444 9.7642 9.54541 10.5738 9.27901 11.2762C14.525 10.3553 17.1479 9.8948 17.1479 9.8948C16.0636 8.49745 15.1338 8.09788 14.28 8.17124Z" fill="#1A1C1F"/>
</g>
<defs>
<clipPath id="clip0_2214_6670">
<rect width="28" height="28" fill="white"/>
</clipPath>
</defs>
</svg>

<svg xmlns="http://www.w3.org/2000/svg" width="28" height="28" fill="none"><g clip-path="url(#a)"><path fill="#1A1C1F" fill-rule="evenodd" d="M23.309 18.335c.257.332.545.659.725.824.425.39.97.632 1.34.676.44.052.744.337.744.747 0 .411-.333.744-.744.744q-1.34 0-2.662-1.382-1.527 1.383-3.026 1.382-1.497 0-2.905-1.175-1.432 1.175-2.782 1.175t-2.835-1.198q-1.53 1.198-2.852 1.198T5.376 20.13q-1.422 1.197-2.752 1.197a.744.744 0 1 1 0-1.487q.945-.214 1.457-.583c.326-.235.576-.471.704-.615a.747.747 0 0 1 1.063-.048c.307.281.622.498.845.64.501.32 1.116.6 1.619.602.502.001.997-.223 1.545-.592.209-.14.466-.33.783-.63.317-.301.748-.3 1.06.004s.564.488.77.628c.55.375 1.085.594 1.529.594.442 0 .97-.217 1.509-.591.2-.14.447-.305.75-.625a.744.744 0 0 1 1.104.03c.118.137.358.366.687.597.53.372 1.088.589 1.637.589.529 0 1.115-.264 1.697-.718.216-.169.502-.395.794-.757.293-.36.875-.36 1.132-.029M17.855 8.42c.38.419.685.835.911 1.193l6.48-1.137a.744.744 0 0 1 .802 1.048l-2.196 3.523q-1.891 3.03-2.547 4.036c-.656 1.007-1.619.875-1.619.875q-1.29 0-2.843-1.75-1.566 1.75-2.844 1.75t-2.844-1.75q-1.554 1.75-2.843 1.75-1.29 0-2.844-1.75-1.55 1.75-2.844 1.75a.75.75 0 0 1-.744-.744l.005-2.708c-.005-1.151.832-2.053 1.862-2.259l3.687-.646a3.8 3.8 0 0 0 .593-3.103.743.743 0 0 1 .601-.91l5.25-.864c1.504-.246 2.838.445 3.977 1.696M7.58 13.286a.744.744 0 0 0 .228 1.459l14.184-2.217a.744.744 0 0 0-.228-1.458zm6.699-5.115-4.68.762c.084.831-.055 1.64-.321 2.343l7.869-1.381c-1.084-1.398-2.014-1.797-2.868-1.724" clip-rule="evenodd"/></g><defs><clipPath id="a"><path fill="#fff" d="M0 0h28v28H0z"/></clipPath></defs></svg>
